X: 1
T: Luke Dillon by Carrollan
B: A COLECTION of the most Celebrated Irish Tunes2 p.0a
M: 3/4
L: 1/8
K: D
D2 |\
F2 A4 | (AB) (AF) (ED) | F2 A2 Bc | d4 A2 |
dc de fg | e2 A2 (fe) | d2 (cB) (Bc) | B4 (A/B/c) |
d2 (cd) (Bc) | A2 Bc d2 | B2 dB (d/B/A/G/) | {F}E4 AG |
TF2 (ED) A2 | BA Bc d2 | A2 (GF) (G/F/E/D/) | D4 :|
|: D2 |\
F2 A4 | (AB) (AF) (ED) | dc de (d/e/f) | B2 dB (d/B/A/G/) | {F}E2 F2 Ac | B2 Tc3 (B/c/) |
d2 D2 (d/e/f) | e4 (fe) | dB de de | fe fa (f/a/b) | a2 e2 (3efe | e4 (fe) |
d2 (3cdc (3BcB | A2 Bc (B/c/d) | B2 dB (d/B/A/G/) | {F}E3 GFE | D3 DAF | E4 (GA) |
B2 B,2 (3B,CB, | B,4 (A,/B,/C) | D2 (ED) (CB,) | A,2 DC DB, | (D/E/F) T[E4A,4] | [A4F4D4] :|
